packages/assets/static/images/icons/bridge.svg

<svg width="24" height="24" viewBox="0 0 24 24" xmlns="http://www.w3.org/2000/svg">
<path d="M21.7505 15H18.7505V9.50062C19.4715 10.3901 20.4071 11.0812 21.4692 11.5087C21.6528 11.5795 21.8569 11.5753 22.0374 11.497C22.2179 11.4187 22.3604 11.2726 22.4342 11.0902C22.5079 10.9078 22.5071 10.7037 22.4318 10.522C22.3566 10.3402 22.2129 10.1953 22.0317 10.1184C21.0604 9.72852 20.2284 9.05609 19.6434 8.18814C19.0585 7.32019 18.7474 6.29667 18.7505 5.25C18.7505 5.05109 18.6715 4.86032 18.5308 4.71967C18.3902 4.57902 18.1994 4.5 18.0005 4.5C17.8016 4.5 17.6108 4.57902 17.4702 4.71967C17.3295 4.86032 17.2505 5.05109 17.2505 5.25C17.2505 6.64239 16.6974 7.97774 15.7128 8.96231C14.7282 9.94688 13.3929 10.5 12.0005 10.5C10.6081 10.5 9.27274 9.94688 8.28818 8.96231C7.30361 7.97774 6.75049 6.64239 6.75049 5.25C6.75049 5.05109 6.67147 4.86032 6.53082 4.71967C6.39017 4.57902 6.1994 4.5 6.00049 4.5C5.80158 4.5 5.61081 4.57902 5.47016 4.71967C5.32951 4.86032 5.25049 5.05109 5.25049 5.25C5.25359 6.29667 4.94252 7.32019 4.35754 8.18814C3.77256 9.05609 2.94058 9.72852 1.96924 10.1184C1.78811 10.1953 1.64442 10.3402 1.56914 10.522C1.49386 10.7037 1.49303 10.9078 1.56682 11.0902C1.64061 11.2726 1.78312 11.4187 1.96361 11.497C2.14411 11.5753 2.34815 11.5795 2.53174 11.5087C3.59385 11.0812 4.52952 10.3901 5.25049 9.50062V15H2.25049C2.05158 15 1.86081 15.079 1.72016 15.2197C1.57951 15.3603 1.50049 15.5511 1.50049 15.75C1.50049 15.9489 1.57951 16.1397 1.72016 16.2803C1.86081 16.421 2.05158 16.5 2.25049 16.5H5.25049V18.75C5.25049 18.9489 5.32951 19.1397 5.47016 19.2803C5.61081 19.421 5.80158 19.5 6.00049 19.5C6.1994 19.5 6.39017 19.421 6.53082 19.2803C6.67147 19.1397 6.75049 18.9489 6.75049 18.75V16.5H17.2505V18.75C17.2505 18.9489 17.3295 19.1397 17.4702 19.2803C17.6108 19.421 17.8016 19.5 18.0005 19.5C18.1994 19.5 18.3902 19.421 18.5308 19.2803C18.6715 19.1397 18.7505 18.9489 18.7505 18.75V16.5H21.7505C21.9494 16.5 22.1402 16.421 22.2808 16.2803C22.4215 16.1397 22.5005 15.9489 22.5005 15.75C22.5005 15.5511 22.4215 15.3603 22.2808 15.2197C22.1402 15.079 21.9494 15 21.7505 15ZM13.5005 11.8312V15H10.5005V11.8312C11.4878 12.0563 12.5131 12.0563 13.5005 11.8312ZM6.75049 9.4875C7.36248 10.2438 8.12979 10.8599 9.00049 11.2941V15H6.75049V9.4875ZM15.0005 15V11.295C15.8712 10.8609 16.6385 10.2448 17.2505 9.48844V15H15.0005Z"/>
</svg>

<svg viewBox="0 0 24 24" xmlns="http://www.w3.org/2000/svg" aria-hidden="true" fill="currentColor"><path d="M21.75 15h-3V9.5a6.74 6.74 0 0 0 2.72 2.009.75.75 0 0 0 .562-1.39A5.23 5.23 0 0 1 18.75 5.25a.75.75 0 1 0-1.5 0 5.25 5.25 0 1 1-10.5 0 .75.75 0 0 0-1.5 0 5.23 5.23 0 0 1-3.28 4.868.75.75 0 0 0 .562 1.39A6.74 6.74 0 0 0 5.25 9.502V15h-3a.75.75 0 1 0 0 1.5h3v2.25a.75.75 0 1 0 1.5 0V16.5h10.5v2.25a.75.75 0 1 0 1.5 0V16.5h3a.75.75 0 1 0 0-1.5m-8.25-3.169V15h-3v-3.169a6.75 6.75 0 0 0 3 0M6.75 9.488A6.8 6.8 0 0 0 9 11.294V15H6.75zM15 15v-3.705a6.8 6.8 0 0 0 2.25-1.807V15z"/></svg>
